src/assets/duotone/Siacoin.svg

<svg width="24" height="24" viewBox="0 0 24 24"  xmlns="http://www.w3.org/2000/svg">
<path opacity="0.4" d="M12 22.75C6.07 22.75 1.25 17.93 1.25 12C1.25 10.51 1.55001 9.08 2.14001 7.72C2.31001 7.34 2.75 7.17 3.13 7.33C3.51 7.5 3.68002 7.94 3.52002 8.32C3.02002 9.48 2.76001 10.72 2.76001 12C2.76001 17.1 6.91001 21.25 12.01 21.25C17.11 21.25 21.26 17.1 21.26 12C21.26 6.9 17.1 2.75 12 2.75C10.71 2.75 9.45003 3.01 8.28003 3.53C7.91003 3.7 7.45998 3.53 7.28998 3.15C7.11998 2.77 7.28998 2.33 7.66998 2.16C9.03998 1.56 10.49 1.25 12 1.25C17.93 1.25 22.75 6.07 22.75 12C22.75 17.93 17.93 22.75 12 22.75Z" />
<path d="M16 15.25V12C16 9.65 14.1 7.75 11.75 7.75C9.4 7.75 7.5 9.65 7.5 12C7.5 14.35 9.4 16.25 11.75 16.25H15C15.55 16.25 16 15.8 16 15.25Z" />
<path d="M5.00012 6.87914C6.03842 6.87914 6.88013 6.03744 6.88013 4.99914C6.88013 3.96085 6.03842 3.11914 5.00012 3.11914C3.96183 3.11914 3.12012 3.96085 3.12012 4.99914C3.12012 6.03744 3.96183 6.87914 5.00012 6.87914Z" />
</svg>

<?xml version="1.0" encoding="UTF-8"?>
<svg width="24" height="24" viewBox="0 0 24 24" xmlns="http://www.w3.org/2000/svg">
 <path d="m12 22.75c-5.93 0-10.75-4.82-10.75-10.75 0-1.49 0.30001-2.92 0.89001-4.28 0.17-0.38 0.60999-0.55 0.98999-0.39 0.38 0.17 0.55002 0.61 0.39002 0.99-0.5 1.16-0.76001 2.4-0.76001 3.68 0 5.1 4.15 9.25 9.25 9.25 5.1 0 9.25-4.15 9.25-9.25s-4.16-9.25-9.26-9.25c-1.29 0-2.55 0.26-3.72 0.78-0.37 0.17-0.82005 0-0.99005-0.38s0-0.82 0.38-0.99c1.37-0.6 2.82-0.91 4.33-0.91 5.93 0 10.75 4.82 10.75 10.75s-4.82 10.75-10.75 10.75z" opacity=".4"/>
 <path d="m16 15.25v-3.25c0-2.35-1.9-4.25-4.25-4.25s-4.25 1.9-4.25 4.25 1.9 4.25 4.25 4.25h3.25c0.55 0 1-0.45 1-1z"/>
 <path d="m5.0001 6.8791c1.0383 0 1.88-0.8417 1.88-1.88 0-1.0383-0.84171-1.88-1.88-1.88-1.0383 0-1.88 0.84171-1.88 1.88 0 1.0383 0.84171 1.88 1.88 1.88z"/>
</svg>
